img/svg/event.svg

<svg width="64" height="64" viewBox="0 0 64 64" fill="none" xmlns="http://www.w3.org/2000/svg">
<path d="M23.0872 25.9268C20.9786 25.9268 19.2631 27.6316 19.2631 29.727C19.2631 31.8225 20.9786 33.5273 23.0872 33.5273C25.1959 33.5273 26.9114 31.8225 26.9114 29.727C26.9114 27.6316 25.1959 25.9268 23.0872 25.9268ZM23.0872 31.6639C22.0125 31.6639 21.1382 30.7951 21.1382 29.727C21.1382 28.659 22.0125 27.7902 23.0872 27.7902C24.1619 27.7902 25.0362 28.659 25.0362 29.727C25.0362 30.795 24.1619 31.6639 23.0872 31.6639Z" fill="#68A7CF"/>
<path d="M33.0573 25.9268C30.9487 25.9268 29.2331 27.6316 29.2331 29.727C29.2331 31.8225 30.9487 33.5273 33.0573 33.5273C35.1659 33.5273 36.8814 31.8225 36.8814 29.727C36.8814 27.6316 35.1659 25.9268 33.0573 25.9268ZM33.0573 31.6639C31.9824 31.6639 31.1082 30.7951 31.1082 29.727C31.1082 28.659 31.9826 27.7902 33.0573 27.7902C34.1321 27.7902 35.0063 28.659 35.0063 29.727C35.0063 30.7951 34.1319 31.6639 33.0573 31.6639Z" fill="#68A7CF"/>
<path d="M43.0269 25.9268C40.9183 25.9268 39.2028 27.6316 39.2028 29.727C39.2028 31.8225 40.9183 33.5273 43.0269 33.5273C45.1356 33.5273 46.8511 31.8225 46.8511 29.727C46.8511 27.6316 45.1354 25.9268 43.0269 25.9268ZM43.0269 31.6639C41.9522 31.6639 41.0779 30.7951 41.0779 29.727C41.0779 28.659 41.9523 27.7902 43.0269 27.7902C44.1016 27.7902 44.9759 28.659 44.9759 29.727C44.9759 30.7951 44.1016 31.6639 43.0269 31.6639Z" fill="#68A7CF"/>
<path d="M23.0872 35.1968C20.9786 35.1968 19.2631 36.9016 19.2631 38.9971C19.2631 41.0925 20.9786 42.7973 23.0872 42.7973C25.1959 42.7973 26.9114 41.0925 26.9114 38.9971C26.9114 36.9016 25.1959 35.1968 23.0872 35.1968ZM23.0872 40.9339C22.0125 40.9339 21.1382 40.0651 21.1382 38.9971C21.1382 37.929 22.0125 37.0602 23.0872 37.0602C24.1619 37.0602 25.0362 37.929 25.0362 38.9971C25.0362 40.0651 24.1619 40.9339 23.0872 40.9339Z" fill="#68A7CF"/>
<path d="M43.0269 35.1968C40.9183 35.1968 39.2028 36.9016 39.2028 38.9971C39.2028 41.0925 40.9183 42.7973 43.0269 42.7973C45.1356 42.7973 46.8511 41.0925 46.8511 38.9971C46.8509 36.9016 45.1354 35.1968 43.0269 35.1968ZM43.0269 40.9339C41.9522 40.9339 41.0779 40.0651 41.0779 38.9971C41.0779 37.929 41.9523 37.0602 43.0269 37.0602C44.1016 37.0602 44.9759 37.929 44.9759 38.9971C44.9758 40.0651 44.1016 40.9339 43.0269 40.9339Z" fill="#68A7CF"/>
<path d="M33.0573 35.1968C30.9487 35.1968 29.2331 36.9016 29.2331 38.9971C29.2331 41.0925 30.9487 42.7973 33.0573 42.7973C35.1659 42.7973 36.8814 41.0925 36.8814 38.9971C36.8814 36.9016 35.1659 35.1968 33.0573 35.1968ZM33.0573 40.9339C31.9824 40.9339 31.1082 40.0651 31.1082 38.9971C31.1082 37.929 31.9826 37.0602 33.0573 37.0602C34.1321 37.0602 35.0063 37.929 35.0063 38.9971C35.0063 40.0651 34.1319 40.9339 33.0573 40.9339Z" fill="#68A7CF"/>
<path d="M33.0573 44.4663C30.9487 44.4663 29.2332 46.1712 29.2332 48.2667C29.2332 50.3622 30.9487 52.067 33.0573 52.067C35.166 52.067 36.8815 50.3622 36.8815 48.2667C36.8815 46.1712 35.166 44.4663 33.0573 44.4663ZM33.0573 50.2034C31.9825 50.2034 31.1082 49.3346 31.1082 48.2666C31.1083 47.1987 31.9826 46.3296 33.0573 46.3296C34.1321 46.3296 35.0064 47.1984 35.0064 48.2666C35.0064 49.3346 34.132 50.2034 33.0573 50.2034Z" fill="#68A7CF"/>
<path d="M23.0872 44.4663C20.9786 44.4663 19.2631 46.1712 19.2631 48.2667C19.2631 50.3622 20.9786 52.067 23.0872 52.067C25.1959 52.067 26.9114 50.3622 26.9114 48.2667C26.9114 46.1712 25.1959 44.4663 23.0872 44.4663ZM23.0872 50.2034C22.0125 50.2034 21.1382 49.3346 21.1382 48.2666C21.1382 47.1985 22.0125 46.3296 23.0872 46.3296C24.1619 46.3296 25.0362 47.1984 25.0362 48.2666C25.0361 49.3346 24.1619 50.2034 23.0872 50.2034Z" fill="#68A7CF"/>
<path d="M14.4433 29.7267L15.8215 28.357C16.1877 27.9932 16.1877 27.4034 15.8214 27.0394C15.4554 26.6757 14.8618 26.6756 14.4955 27.0395L13.1174 28.4091L11.7393 27.0395C11.3732 26.6757 10.7795 26.6756 10.4134 27.0394C10.0472 27.4034 10.0472 27.9932 10.4133 28.357L11.7915 29.7267L10.4133 31.0963C10.0469 31.4601 10.0469 32.0499 10.4132 32.414C10.5962 32.5958 10.8362 32.6867 11.076 32.6867C11.3159 32.6867 11.5559 32.5958 11.739 32.4138L13.1172 31.0443L14.4953 32.4138C14.6784 32.5958 14.9183 32.6867 15.1583 32.6867C15.3982 32.6867 15.6382 32.5958 15.8212 32.414C16.1874 32.05 16.1874 31.4602 15.8213 31.0963L14.4433 29.7267Z" fill="#68A7CF"/>
<path d="M14.4433 38.9967L15.8215 37.627C16.1877 37.2632 16.1877 36.6734 15.8214 36.3094C15.4554 35.9457 14.8618 35.9456 14.4955 36.3096L13.1174 37.6791L11.7393 36.3096C11.3732 35.9456 10.7795 35.9457 10.4134 36.3094C10.0472 36.6734 10.0472 37.2632 10.4133 37.627L11.7915 38.9967L10.4133 40.3663C10.0469 40.7301 10.0469 41.3199 10.4132 41.6839C10.5962 41.8658 10.8362 41.9567 11.076 41.9567C11.3159 41.9567 11.5559 41.8658 11.739 41.6838L13.1172 40.3143L14.4953 41.6838C14.6784 41.8658 14.9183 41.9567 15.1583 41.9567C15.3982 41.9567 15.6382 41.8658 15.8212 41.6839C16.1874 41.32 16.1874 40.7302 15.8213 40.3663L14.4433 38.9967Z" fill="#68A7CF"/>
<path d="M15.8215 49.6362L14.4434 48.2667L15.8215 46.8972C16.1874 46.5333 16.1874 45.9435 15.8212 45.5794C15.455 45.2157 14.8615 45.2157 14.4952 45.5794L13.1171 46.949L11.739 45.5794C11.3727 45.2157 10.7792 45.2157 10.413 45.5794C10.0469 45.9434 10.0469 46.5332 10.413 46.8972L11.7911 48.2667L10.413 49.6362C10.0469 50.0002 10.0469 50.59 10.413 50.9539C10.5961 51.1358 10.8361 51.2267 11.076 51.2267C11.3159 51.2267 11.5559 51.1358 11.739 50.9539L13.1171 49.5844L14.4952 50.9539C14.6784 51.1358 14.9184 51.2267 15.1582 51.2267C15.3981 51.2267 15.6381 51.1358 15.8212 50.9539C16.1876 50.5898 16.1876 50 15.8215 49.6362Z" fill="#68A7CF"/>
<path d="M63.9461 52.408L61.3893 39.0363C61.2926 38.5309 60.8008 38.1989 60.293 38.295C59.7844 38.391 59.4504 38.8787 59.547 39.3844L62.1039 52.7561C62.2469 53.5045 61.611 54.2109 60.7449 54.2109H46.8711L55.8699 45.2684C56.0345 45.1048 56.1444 44.8658 56.1444 44.6096V21.5897L58.7155 35.0363C58.8121 35.5417 59.3034 35.8738 59.8116 35.7776C60.3203 35.6816 60.6543 35.1939 60.5576 34.6882L56.1382 11.5761C56.0746 10.2012 54.9324 9.1013 53.5335 9.1013H45.3172V6.10548C45.3172 5.59084 44.8976 5.17383 44.3797 5.17383C43.8619 5.17383 43.4422 5.59084 43.4422 6.10548V9.10118H37.1635V6.10548C37.1635 5.59084 36.7439 5.17383 36.226 5.17383C35.7081 5.17383 35.2885 5.59084 35.2885 6.10548V9.10118H29.0096V6.10548C29.0096 5.59084 28.59 5.17383 28.0721 5.17383C27.5542 5.17383 27.1346 5.59084 27.1346 6.10548V9.10118H20.8559V6.10548C20.8559 5.59084 20.4363 5.17383 19.9184 5.17383C19.4005 5.17383 18.9809 5.59084 18.9809 6.10548V9.10118H12.7021V6.10548C12.7021 5.59084 12.2825 5.17383 11.7646 5.17383C11.2467 5.17383 10.8271 5.59084 10.8271 6.10548V9.10118H2.61087C1.17125 9.1013 0 10.2651 0 11.6959V55.9986C0 57.4292 1.17125 58.5931 2.61087 58.5931H25.8846C26.4025 58.5931 26.8221 58.1761 26.8221 57.6614C26.8221 57.1468 26.4025 56.7298 25.8846 56.7298H2.61087C2.20525 56.7298 1.87513 56.4018 1.87513 55.9987V21.1981H54.2694V43.6776H43.7461C42.3065 43.6776 41.1354 44.8415 41.1354 46.2721V56.7296H30.2598C29.7419 56.7296 29.3223 57.1466 29.3223 57.6613C29.3223 58.1759 29.7419 58.5929 30.2598 58.5929H42.0729C42.3148 58.5929 42.5573 58.4977 42.7359 58.3202L44.9959 56.0742H60.745C62.7812 56.0742 64.3104 54.3126 63.9461 52.408ZM1.87513 19.3347V11.6959C1.87513 11.2928 2.20525 10.9647 2.61087 10.9647H10.8271V15.1497C10.8271 15.6644 11.2467 16.0814 11.7646 16.0814C12.2825 16.0814 12.7021 15.6644 12.7021 15.1497V10.9647H18.9809V15.1497C18.9809 15.6644 19.4005 16.0814 19.9184 16.0814C20.4363 16.0814 20.8559 15.6644 20.8559 15.1497V10.9647H27.1346V15.1497C27.1346 15.6644 27.5542 16.0814 28.0721 16.0814C28.59 16.0814 29.0096 15.6644 29.0096 15.1497V10.9647H35.2885V15.1497C35.2885 15.6644 35.7081 16.0814 36.226 16.0814C36.7439 16.0814 37.1635 15.6644 37.1635 15.1497V10.9647H43.4422V15.1497C43.4422 15.6644 43.8619 16.0814 44.3797 16.0814C44.8976 16.0814 45.3172 15.6644 45.3172 15.1497V10.9647H53.5335C53.9391 10.9647 54.2692 11.2928 54.2692 11.6959V19.3348H1.87513V19.3347ZM43.0104 55.412V46.2723C43.0104 45.8692 43.3404 45.5411 43.746 45.5411H52.9432C52.0051 46.4735 43.9505 54.4778 43.0104 55.412Z" fill="#68A7CF"/>
</svg>

<svg width="64" height="64" viewBox="0 0 64 64" fill="none" xmlns="http://www.w3.org/2000/svg"><path d="M23.087 25.927c-2.108 0-3.824 1.705-3.824 3.8 0 2.096 1.716 3.8 3.824 3.8 2.109 0 3.824-1.704 3.824-3.8 0-2.095-1.715-3.8-3.824-3.8zm0 5.737a1.945 1.945 0 0 1-1.949-1.937c0-1.068.874-1.937 1.95-1.937 1.074 0 1.948.869 1.948 1.937a1.945 1.945 0 0 1-1.949 1.937zm9.97-5.737c-2.108 0-3.824 1.705-3.824 3.8 0 2.096 1.716 3.8 3.824 3.8 2.109 0 3.824-1.704 3.824-3.8 0-2.095-1.715-3.8-3.824-3.8zm0 5.737a1.945 1.945 0 0 1-1.949-1.937c0-1.068.875-1.937 1.95-1.937 1.074 0 1.948.869 1.948 1.937a1.945 1.945 0 0 1-1.949 1.937zm9.97-5.737c-2.109 0-3.824 1.705-3.824 3.8 0 2.096 1.715 3.8 3.824 3.8s3.824-1.704 3.824-3.8c0-2.095-1.716-3.8-3.824-3.8zm0 5.737a1.945 1.945 0 0 1-1.95-1.937c0-1.068.875-1.937 1.95-1.937s1.949.869 1.949 1.937a1.945 1.945 0 0 1-1.95 1.937zm-19.94 3.533c-2.108 0-3.824 1.705-3.824 3.8 0 2.096 1.716 3.8 3.824 3.8 2.109 0 3.824-1.704 3.824-3.8 0-2.095-1.715-3.8-3.824-3.8zm0 5.737a1.945 1.945 0 0 1-1.949-1.937c0-1.068.874-1.937 1.95-1.937 1.074 0 1.948.869 1.948 1.937a1.945 1.945 0 0 1-1.949 1.937zm19.94-5.737c-2.109 0-3.824 1.705-3.824 3.8 0 2.096 1.715 3.8 3.824 3.8s3.824-1.704 3.824-3.8c0-2.095-1.716-3.8-3.824-3.8zm0 5.737a1.945 1.945 0 0 1-1.95-1.937c0-1.068.875-1.937 1.95-1.937s1.949.869 1.949 1.937a1.945 1.945 0 0 1-1.95 1.937zm-9.97-5.737c-2.108 0-3.824 1.705-3.824 3.8 0 2.096 1.716 3.8 3.824 3.8 2.109 0 3.824-1.704 3.824-3.8 0-2.095-1.715-3.8-3.824-3.8zm0 5.737a1.945 1.945 0 0 1-1.949-1.937c0-1.068.875-1.937 1.95-1.937 1.074 0 1.948.869 1.948 1.937a1.945 1.945 0 0 1-1.949 1.937zm0 3.532c-2.108 0-3.824 1.705-3.824 3.8 0 2.096 1.716 3.801 3.824 3.801 2.109 0 3.825-1.705 3.825-3.8 0-2.096-1.716-3.8-3.825-3.8zm0 5.737a1.945 1.945 0 0 1-1.949-1.936c0-1.068.875-1.937 1.95-1.937 1.074 0 1.948.868 1.948 1.937a1.945 1.945 0 0 1-1.949 1.936zm-9.97-5.737c-2.108 0-3.824 1.705-3.824 3.8 0 2.096 1.716 3.801 3.824 3.801 2.109 0 3.824-1.705 3.824-3.8 0-2.096-1.715-3.8-3.824-3.8zm0 5.737a1.945 1.945 0 0 1-1.949-1.936c0-1.069.874-1.937 1.95-1.937 1.074 0 1.948.868 1.948 1.937a1.945 1.945 0 0 1-1.949 1.936zm-8.644-20.476l1.379-1.37a.927.927 0 0 0 0-1.318.942.942 0 0 0-1.326 0l-1.379 1.37-1.378-1.37a.942.942 0 0 0-1.326 0 .928.928 0 0 0 0 1.318l1.378 1.37-1.378 1.37a.927.927 0 0 0 0 1.317.938.938 0 0 0 1.326 0l1.378-1.37 1.378 1.37a.938.938 0 0 0 1.326 0 .928.928 0 0 0 0-1.318l-1.378-1.37zm0 9.27l1.379-1.37a.927.927 0 0 0 0-1.318.942.942 0 0 0-1.326 0l-1.379 1.37-1.378-1.37a.942.942 0 0 0-1.326 0 .928.928 0 0 0 0 1.318l1.378 1.37-1.378 1.37a.927.927 0 0 0 0 1.317.937.937 0 0 0 1.326 0l1.378-1.37 1.378 1.37a.937.937 0 0 0 .663.273c.24 0 .48-.091.663-.273a.928.928 0 0 0 0-1.318l-1.378-1.37zm1.379 10.639l-1.379-1.37 1.379-1.369a.928.928 0 0 0 0-1.318.942.942 0 0 0-1.327 0l-1.378 1.37-1.378-1.37a.942.942 0 0 0-1.326 0 .928.928 0 0 0 0 1.318l1.378 1.37-1.378 1.37a.928.928 0 0 0 0 1.317.938.938 0 0 0 1.326 0l1.378-1.37 1.378 1.37a.938.938 0 0 0 1.326 0 .927.927 0 0 0 0-1.318z" fill="#68A7CF"/><path d="M63.946 52.408L61.39 39.036a.938.938 0 0 0-1.842.348l2.557 13.372c.143.748-.493 1.455-1.36 1.455H46.872l8.999-8.943a.94.94 0 0 0 .274-.658V21.59l2.572 13.446a.937.937 0 0 0 1.842-.348l-4.42-23.112a2.605 2.605 0 0 0-2.605-2.475h-8.216V6.105a.934.934 0 0 0-.937-.931.935.935 0 0 0-.938.931v2.996h-6.279V6.105a.934.934 0 0 0-.937-.931.934.934 0 0 0-.938.931v2.996H29.01V6.105a.934.934 0 0 0-.938-.931.934.934 0 0 0-.937.931v2.996h-6.28V6.105a.934.934 0 0 0-.937-.931.934.934 0 0 0-.937.931v2.996h-6.279V6.105a.934.934 0 0 0-.937-.931.934.934 0 0 0-.938.931v2.996H2.611A2.606 2.606 0 0 0 0 11.696v44.303a2.606 2.606 0 0 0 2.61 2.594h23.275a.934.934 0 0 0 .937-.932.934.934 0 0 0-.937-.931H2.61a.734.734 0 0 1-.736-.731v-34.8H54.27v22.479H43.746a2.606 2.606 0 0 0-2.61 2.594V56.73H30.26a.934.934 0 0 0-.938.931c0 .515.42.932.938.932h11.813a.945.945 0 0 0 .663-.273l2.26-2.246h15.749c2.036 0 3.565-1.761 3.201-3.666zM1.876 19.335v-7.64c0-.402.33-.73.735-.73h8.216v4.185c0 .514.42.931.938.931a.934.934 0 0 0 .937-.931v-4.185h6.279v4.185c0 .514.42.931.937.931a.934.934 0 0 0 .938-.931v-4.185h6.279v4.185c0 .514.42.931.937.931a.934.934 0 0 0 .938-.931v-4.185h6.278v4.185c0 .514.42.931.938.931a.934.934 0 0 0 .938-.931v-4.185h6.278v4.185c0 .514.42.931.938.931a.934.934 0 0 0 .937-.931v-4.185h8.216c.406 0 .736.328.736.73v7.64H1.875zM43.01 55.412v-9.14c0-.403.33-.73.736-.73h9.197l-9.933 9.87z" fill="#68A7CF"/></svg>
